T: Policeman's Request, The
M: 4/4
L: 1/8
K: Gmin
|:DGGD GABG|dgga gfdf|F2FA cFAc|dAcA GAD2|
DGGD GABG|dgga gfdf|F2FA cFAc|dAcA BGG2:|
|:dggf gabg|agf^f fgfd|cAfA gAfA|cdfa gfdc|
dggf gabg|agf^f fgfd|cFAc FABc|dcBA BGG2:|
